icons/svg/shopping/tableware.svg

<?xml version="1.0" encoding="UTF-8" standalone="no"?>
<!-- Created with Inkscape (http://www.inkscape.org/) -->

<svg
   xmlns:dc="http://purl.org/dc/elements/1.1/"
   xmlns:cc="http://creativecommons.org/ns#"
   xmlns:rdf="http://www.w3.org/1999/02/22-rdf-syntax-ns#"
   xmlns:svg="http://www.w3.org/2000/svg"
   xmlns="http://www.w3.org/2000/svg"
   xmlns:sodipodi="http://sodipodi.sourceforge.net/DTD/sodipodi-0.dtd"
   xmlns:inkscape="http://www.inkscape.org/namespaces/inkscape"
   version="1.0"
   width="580"
   height="580"
   id="svg2"
   sodipodi:version="0.32"
   inkscape:version="0.91 r"
   sodipodi:docname="tableware.svg"
   inkscape:output_extension="org.inkscape.output.svg.inkscape">
  <metadata
     id="metadata10">
    <rdf:RDF>
      <cc:Work
         rdf:about="">
        <dc:format>image/svg+xml</dc:format>
        <dc:type
           rdf:resource="http://purl.org/dc/dcmitype/StillImage" />
        <cc:license
           rdf:resource="http://web.resource.org/cc/PublicDomain" />
        <dc:language>en</dc:language>
        <dc:title></dc:title>
      </cc:Work>
    </rdf:RDF>
  </metadata>
  <sodipodi:namedview
     inkscape:window-height="1004"
     inkscape:window-width="1920"
     inkscape:pageshadow="2"
     inkscape:pageopacity="0.0"
     guidetolerance="10.0"
     gridtolerance="10.0"
     objecttolerance="10.0"
     borderopacity="1.0"
     bordercolor="#666666"
     pagecolor="#ffffff"
     id="base"
     showgrid="false"
     inkscape:zoom="0.35355339"
     inkscape:cx="191.3187"
     inkscape:cy="351.81514"
     inkscape:window-x="1680"
     inkscape:window-y="0"
     inkscape:current-layer="svg2"
     inkscape:window-maximized="1"
     inkscape:snap-bbox="true" />
  <defs
     id="defs4">
    <inkscape:perspective
       sodipodi:type="inkscape:persp3d"
       inkscape:vp_x="0 : 290 : 1"
       inkscape:vp_y="0 : 1000 : 0"
       inkscape:vp_z="580 : 290 : 1"
       inkscape:persp3d-origin="290 : 193.33333 : 1"
       id="perspective12" />
    <style
       type="text/css"
       id="style6">
   
    .fil0 {fill:#EF7900}
   
  </style>
    <inkscape:perspective
       id="perspective6807"
       inkscape:persp3d-origin="29.116032 : 19.410688 : 1"
       inkscape:vp_z="58.232063 : 29.116032 : 1"
       inkscape:vp_y="0 : 1000 : 0"
       inkscape:vp_x="0 : 29.116032 : 1"
       sodipodi:type="inkscape:persp3d" />
    <inkscape:perspective
       id="perspective6954"
       inkscape:persp3d-origin="290 : 193.33333 : 1"
       inkscape:vp_z="580 : 290 : 1"
       inkscape:vp_y="0 : 1000 : 0"
       inkscape:vp_x="0 : 290 : 1"
       sodipodi:type="inkscape:persp3d" />
    <inkscape:perspective
       id="perspective2541"
       inkscape:persp3d-origin="240 : 160 : 1"
       inkscape:vp_z="480 : 240 : 1"
       inkscape:vp_y="0 : 1000 : 0"
       inkscape:vp_x="0 : 240 : 1"
       sodipodi:type="inkscape:persp3d" />
    <inkscape:perspective
       id="perspective2750"
       inkscape:persp3d-origin="215 : 143.33333 : 1"
       inkscape:vp_z="430 : 215 : 1"
       inkscape:vp_y="0 : 1000 : 0"
       inkscape:vp_x="0 : 215 : 1"
       sodipodi:type="inkscape:persp3d" />
    <inkscape:perspective
       id="perspective3730"
       inkscape:persp3d-origin="88.929146 : 101.19778 : 1"
       inkscape:vp_z="177.85829 : 151.79668 : 1"
       inkscape:vp_y="0 : 1000 : 0"
       inkscape:vp_x="0 : 151.79668 : 1"
       sodipodi:type="inkscape:persp3d" />
  </defs>
  <g
     id="g1327">
    <path
       d="M 66.275,1.768 C 24.94,1.768 1.704,23.139 1.704,66.804 L 1.704,516.927 C 1.704,557.771 22.598,579.156 63.896,579.156 L 515.92,579.156 C 557.227,579.156 578.149,558.84 578.149,516.927 L 578.149,66.804 C 578.149,24.203 557.227,1.768 514.627,1.768 C 514.624,1.768 66.133,1.625 66.275,1.768 z"
       style="fill:#111111;stroke:#eeeeee;stroke-width:3.40799999"
       id="path1329" />
  </g>
  <g
     style="font-size:36.50536728px;font-style:normal;font-variant:normal;font-weight:bold;font-stretch:normal;text-align:start;line-height:125%;letter-spacing:0px;word-spacing:0px;writing-mode:lr-tb;text-anchor:start;fill:#000000;fill-opacity:1;stroke:none;font-family:Sans;-inkscape-font-specification:Sans Bold"
     id="text3857" />
  <g
     style="font-size:25.55375862px;font-style:normal;font-variant:normal;font-weight:bold;font-stretch:normal;text-align:start;line-height:125%;letter-spacing:0px;word-spacing:0px;writing-mode:lr-tb;text-anchor:start;fill:#000000;fill-opacity:1;stroke:none;font-family:Sans;-inkscape-font-specification:Sans Bold"
     id="text3896" />
  <g
     id="g8144"
     transform="matrix(0.21235796,0,0,0.21235796,323.3892,78.646311)" />
  <g
     transform="matrix(0.21235796,0,0,0.21235796,389.3892,78.646311)"
     id="g8150" />
  <g
     id="g4354"
     transform="matrix(0.31972367,0,0,0.31972367,268.65635,192.82199)" />
  <path
     inkscape:connector-curvature="0"
     style="fill:none;fill-opacity:1;stroke:#ffffff;stroke-width:37.74440002;stroke-linecap:round;stroke-linejoin:round;stroke-miterlimit:10;stroke-opacity:1"
     stroke-miterlimit="10"
     d="m 64.703699,318.62912 225.296321,93.71934 225.29629,-93.7382"
     id="path3" />
  <path
     inkscape:connector-curvature="0"
     style="fill:#ffffff;fill-opacity:1"
     d="m 497.5942,205.0751 -415.188382,0 c -31.195743,0 -36.272363,22.70326 -36.272363,35.68734 0,7.07707 36.272363,-0.887 36.272363,51.42674 0,44.89696 0,121.48034 0,121.48034 0,45.23666 46.369002,112.23296 113.063342,112.23296 l 189.0617,0 c 66.69435,0 113.06334,-66.9963 113.06334,-112.23296 0,0 0,-76.58338 0,-121.48034 0,-52.31374 36.27234,-44.36854 36.27234,-51.44562 0,-12.9652 -5.07665,-35.66846 -36.27234,-35.66846 z"
     id="path5" />
  <path
     inkscape:connector-curvature="0"
     style="fill:none;stroke:#ffffff;stroke-width:37.74440002;stroke-miterlimit:10;stroke-opacity:1"
     stroke-miterlimit="10"
     d="m 214.51121,148.45851 c 0,-41.68868 33.80011,-75.48879 75.48881,-75.48879 41.68864,0 75.48879,33.80011 75.48879,75.48879"
     id="path7" />
  <path
     inkscape:connector-curvature="0"
     style="fill:#ffffff;fill-opacity:1"
     d="m 497.5942,185.74998 -415.188382,0 c 0,0 72.091802,-63.41059 207.594202,-63.41059 135.50233,0 207.59418,63.41059 207.59418,63.41059 z"
     id="path9" />
</svg>

<svg width="580" height="580" viewBox="0 0 580 580" fill="none" xmlns="http://www.w3.org/2000/svg">
<g clip-path="url(#clip0)">
<path d="M66.2751 1.76863C24.9401 1.76863 1.7041 23.1396 1.7041 66.8046V516.928C1.7041 557.772 22.5981 579.157 63.8961 579.157H515.92C557.227 579.157 578.149 558.841 578.149 516.928V66.8046C578.149 24.2036 557.227 1.76863 514.627 1.76863C514.624 1.76863 66.1331 1.62563 66.2751 1.76863Z" fill="#111111" stroke="#EEEEEE" stroke-width="3.408"/>
<path d="M64.7036 318.628L290 412.348L515.296 318.609" stroke="white" stroke-width="37.7444" stroke-miterlimit="10" stroke-linecap="round" stroke-linejoin="round"/>
<path d="M497.594 205.074H82.4057C51.2099 205.074 46.1333 227.777 46.1333 240.762C46.1333 247.839 82.4057 239.875 82.4057 292.188C82.4057 337.085 82.4057 413.669 82.4057 413.669C82.4057 458.905 128.775 525.902 195.469 525.902H384.531C451.225 525.902 497.594 458.905 497.594 413.669C497.594 413.669 497.594 337.085 497.594 292.188C497.594 239.875 533.866 247.82 533.866 240.743C533.866 227.777 528.79 205.074 497.594 205.074V205.074Z" fill="white"/>
<path d="M214.511 148.458C214.511 106.769 248.311 72.9688 290 72.9688C331.689 72.9688 365.489 106.769 365.489 148.458" stroke="white" stroke-width="37.7444" stroke-miterlimit="10"/>
<path d="M497.594 185.75H82.4058C82.4058 185.75 154.498 122.34 290 122.34C425.502 122.34 497.594 185.75 497.594 185.75Z" fill="white"/>
</g>
<defs>
<clipPath id="clip0">
<path d="M0 0H580V580H0V0Z" fill="white"/>
</clipPath>
</defs>
</svg>
